X: 27305
T: Missing You
R: jig
M: 6/8
K: Gmajor
M:5/8
B2 G AB|d2 B AB|dBA BG|EDE GA|
B2 G AB|d2 B AB|c2 B AB|GAF FG:|
|:A2 G EG|AGE GA|B2 G AB|ABG EG|
A2 G AB|ABG AB|c2 B AB|GAF FG:|

